ColorPalette.svg

<svg xmlns="http://www.w3.org/2000/svg" viewBox="0 0 24 24">
  <path 
  fill="none" 
  stroke="#757575" 
  stroke-width=".8" 
  d="M12 2.5c-5.2 0-9.5 4.3-9.5 9.5s4.3 9.5 9.5 9.5c.9 0 1.6-.7 1.6-1.6 
  0-.4-.2-.8-.4-1.1-.2-.3-.4-.6-.4-1 0-.9.7-1.6 1.6-1.6h1.9c2.9 0 5.3-2.4 
  5.3-5.3-.1-4.6-4.4-8.4-9.6-8.4zm-5.5 9c-.6 0-1-.4-1-1s.4-1 1-1 1 .4 1 1-.4 1-1 1zm3-4c-.6 
  0-1-.4-1-1s.4-1 1-1 1 .4 1 1-.4 1-1 1zm5 0c-.6 0-1-.4-1-1s.4-1 1-1 1 .4 1 1-.4 1-1 1zm3 4c-.6 0-1-.4-1-1s.4-1 1-1 1 .4 1 1-.4 1-1 1z"/>
</svg>

<?xml version="1.0" encoding="utf-8"?>
<!-- Generator: Adobe Illustrator 21.1.0, SVG Export Plug-In . SVG Version: 6.00 Build 0)  -->
<svg version="1.1" id="Ebene_1" xmlns="http://www.w3.org/2000/svg" xmlns:xlink="http://www.w3.org/1999/xlink" x="0px" y="0px"
	 viewBox="0 0 24 24" style="enable-background:new 0 0 24 24;" xml:space="preserve">
<style type="text/css">
	.st0{fill:none;stroke:#757575;stroke-width:0.8;stroke-miterlimit:10;}
</style>
<path class="st0" d="M12,2.5c-5.2,0-9.5,4.3-9.5,9.5s4.3,9.5,9.5,9.5c0.9,0,1.6-0.7,1.6-1.6c0-0.4-0.2-0.8-0.4-1.1
	c-0.2-0.3-0.4-0.6-0.4-1c0-0.9,0.7-1.6,1.6-1.6h1.9c2.9,0,5.3-2.4,5.3-5.3C21.5,6.3,17.2,2.5,12,2.5z M6.5,11.5c-0.6,0-1-0.4-1-1
	s0.4-1,1-1s1,0.4,1,1S7.1,11.5,6.5,11.5z M9.5,7.5c-0.6,0-1-0.4-1-1s0.4-1,1-1s1,0.4,1,1S10.1,7.5,9.5,7.5z M14.5,7.5
	c-0.6,0-1-0.4-1-1s0.4-1,1-1s1,0.4,1,1S15.1,7.5,14.5,7.5z M17.5,11.5c-0.6,0-1-0.4-1-1s0.4-1,1-1s1,0.4,1,1S18.1,11.5,17.5,11.5z"
	/>
</svg>
